movekom_app/assets/icons/modo_antiheladas.svg

<svg height="59.788" viewBox="0 0 54.467 59.788" width="54.467" xmlns="http://www.w3.org/2000/svg"><path d="m28.369 45.325-12.048-6.956v-13.923l12.048-6.956 12.049 6.956v13.914zm0-42.785v15.041m8.7-10.806-8.645 5.051m-8.747-5.051 8.639 5.051m25.247 5.044-13.027 7.53m13.7 2.119-8.694-4.944m0-10.1-.047 10m-42.319-4.605 13.029 7.53m-13.705 2.129 8.694-4.953m0-10.1.047 10m17.117 38.852v-15.048m-.053 5.755-8.628 5.051m17.386 0-8.641-5.051m-25.246-5.044 13.029-7.531m-5.011 2.825-8.694-4.953m8.7 15.052.047-10m42.315 4.611-13.026-7.535m13.7-2.119-8.694 4.953m0 10.1-.047-10m-17.117-1.2 7.6-4.39v-8.79l-7.6-4.39-7.6 4.39v8.779z" fill="none" stroke="#393939" stroke-linecap="round" stroke-linejoin="round" stroke-width="2" transform="translate(-1.136 -1.54)"/></svg>

<svg xmlns="http://www.w3.org/2000/svg" width="54.467" height="59.788" viewBox="0 0 54.467 59.788">
  <g id="Capa_2" data-name="Capa 2" transform="translate(-1.136 -1.54)">
    <g id="Capa_2-2" data-name="Capa 2" transform="translate(2.5 2.54)">
      <path id="Trazado_859" data-name="Trazado 859" d="M28.369,45.325,16.321,38.369V24.446L28.369,17.49l12.049,6.956V38.36Zm0-42.785V17.581m8.7-10.806-8.645,5.051M19.677,6.775l8.639,5.051M53.563,16.87,40.536,24.4m13.7,2.119-8.694-4.944m0-10.1-.047,10M3.176,16.87,16.205,24.4M2.5,26.529l8.694-4.953m0-10.1.047,10M28.358,60.328V45.28m-.053,5.755-8.628,5.051m17.386,0-8.641-5.051M3.176,45.991,16.205,38.46m-5.011,2.825L2.5,36.332m8.7,15.052.047-10m42.315,4.611L40.536,38.46m13.7-2.119-8.694,4.953m0,10.1-.047-10m-17.117-1.2,7.6-4.39v-8.79l-7.6-4.39-7.6,4.39v8.779Z" transform="translate(-2.5 -2.54)" fill="none" stroke="#393939" stroke-linecap="round" stroke-linejoin="round" stroke-width="2"/>
    </g>
  </g>
</svg>
